src/images_karasa_jaga_svg/cmd/32/symbolshapes.octagon-bevel.svg

<svg height="32" viewBox="0 0 32 32" width="32" xmlns="http://www.w3.org/2000/svg" xmlns:xlink="http://www.w3.org/1999/xlink"><linearGradient id="a" gradientUnits="userSpaceOnUse" x1="57.964031" x2="71.26075" y1="6.435558" y2="123.19748"><stop offset="0" stop-color="#ededed"/><stop offset="1" stop-color="#fcfcfc"/></linearGradient><linearGradient id="b" gradientUnits="userSpaceOnUse" x1="68.293251" x2="67.131371" y1="120.56854" y2="6.724351"><stop offset="0" stop-color="#fff"/><stop offset=".53340602" stop-color="#fff"/><stop offset=".83333331" stop-color="#f1f1f1"/><stop offset=".89999998" stop-color="#eaeaea"/><stop offset="1" stop-color="#dfdfdf"/></linearGradient><linearGradient id="c"><stop offset="0" stop-color="#7c9fcf"/><stop offset=".5" stop-color="#7c9ece"/><stop offset="1" stop-color="#7b9dcf"/></linearGradient><linearGradient id="d" gradientUnits="userSpaceOnUse" x1="68.293251" x2="67.131371" xlink:href="#c" y1="120.56854" y2="6.724351"/><linearGradient id="e" gradientUnits="userSpaceOnUse" x1="57.964031" x2="71.26075" xlink:href="#c" y1="6.435558" y2="123.19748"/><g transform="scale(.25)"><path d="m87.1875 4.0390625-46.376953.00195a3.9778901 3.9778901 0 0 0 -2.8125 1.1640625l-32.794922 32.794925a3.9778901 3.9778901 0 0 0 -1.1640625 2.8125l.00195 46.376953a3.9778901 3.9778901 0 0 0 1.1640625 2.8125l32.794925 32.794927a3.9778901 3.9778901 0 0 0 2.8125 1.16406l46.376953-.002a3.9778901 3.9778901 0 0 0 2.8125-1.16406l32.794927-32.79488a3.9778901 3.9778901 0 0 0 1.16406-2.8125l-.002-46.376953a3.9778901 3.9778901 0 0 0 -1.16406-2.8125l-32.79488-32.794922a3.9778901 3.9778901 0 0 0 -2.8125-1.1640625z" fill="url(#e)"/><path d="m119.98369 87.187859-32.793533 32.794881-46.378016.00095-32.7948831-32.793533-.0009517-46.378016 32.7935368-32.7948831 46.378016-.0009517 32.794881 32.7935368z" fill="url(#a)"/><path d="m49.097656 23.943359a4.0461356 4.0461356 0 0 0 -2.861328 1.183594l-21.097656 21.085938a4.0461356 4.0461356 0 0 0 -1.185547 2.859375l-.0098 29.830078a4.0461356 4.0461356 0 0 0 1.183594 2.861328l21.085938 21.097658a4.0461356 4.0461356 0 0 0 2.859375 1.18555l29.830078.01a4.0461356 4.0461356 0 0 0 2.861328-1.18359l21.097692-21.086181a4.0461356 4.0461356 0 0 0 1.18555-2.859375l.01-29.830078a4.0461356 4.0461356 0 0 0 -1.18359-2.861328l-21.086181-21.097656a4.0461356 4.0461356 0 0 0 -2.859375-1.185547z" fill="url(#d)"/><path d="m100.00288 78.925545-21.098954 21.086285-29.829471-.009-21.086288-21.098954.009-29.829471 21.098953-21.086288 29.829471.009 21.086289 21.098953z" fill="url(#b)"/><g fill="none" stroke="#507dbe" stroke-opacity=".729412" stroke-width="4"><path d="m48.894438 27.664998-8.272094-19.8977388"/><path d="m79.011481 27.626028 8.220572-19.9190796"/><path d="m100.335 48.894438 19.89774-8.272094"/><path d="m27.626028 48.988519-19.9190796-8.220572"/><path d="m27.664998 79.105562-19.8977388 8.272094"/><path d="m40.767947 120.29305 8.220572-19.91908"/><path d="m87.377656 120.23274-8.272094-19.89774"/><path d="m120.29305 87.232053-19.91908-8.220572"/></g></g></svg>

<?xml version="1.0" encoding="UTF-8" standalone="no"?>
<!-- Created with Inkscape (http://www.inkscape.org/) -->

<svg
   xmlns:dc="http://purl.org/dc/elements/1.1/"
   xmlns:cc="http://creativecommons.org/ns#"
   xmlns:rdf="http://www.w3.org/1999/02/22-rdf-syntax-ns#"
   xmlns:svg="http://www.w3.org/2000/svg"
   xmlns="http://www.w3.org/2000/svg"
   xmlns:xlink="http://www.w3.org/1999/xlink"
   xmlns:sodipodi="http://sodipodi.sourceforge.net/DTD/sodipodi-0.dtd"
   xmlns:inkscape="http://www.inkscape.org/namespaces/inkscape"
   version="1.1"
   id="svg2"
   width="128"
   height="128"
   viewBox="0 0 128 128"
   sodipodi:docname="symbolshapes.octagon-bevel.svg"
   inkscape:export-filename="/home/rizmut/Dokumen/Rizmut/Github/libreoffice-style-karasa-jaga/build/images_karasa_jaga/cmd/32/symbolshapes.octagon-bevel.png"
   inkscape:export-xdpi="24"
   inkscape:export-ydpi="24"
   inkscape:version="0.92.3 (unknown)">
  <metadata
     id="metadata8">
    <rdf:RDF>
      <cc:Work
         rdf:about="">
        <dc:format>image/svg+xml</dc:format>
        <dc:type
           rdf:resource="http://purl.org/dc/dcmitype/StillImage" />
        <dc:title></dc:title>
      </cc:Work>
    </rdf:RDF>
  </metadata>
  <defs
     id="defs6">
    <linearGradient
       inkscape:collect="always"
       id="linearGradient1958">
      <stop
         style="stop-color:#ededed;stop-opacity:1;"
         offset="0"
         id="stop1954" />
      <stop
         style="stop-color:#fcfcfc;stop-opacity:1"
         offset="1"
         id="stop1956" />
    </linearGradient>
    <linearGradient
       inkscape:collect="always"
       xlink:href="#linearGradient1958"
       id="linearGradient921"
       x1="57.964031"
       y1="6.4355583"
       x2="71.26075"
       y2="123.19748"
       gradientUnits="userSpaceOnUse" />
    <linearGradient
       id="linearGradient3369">
      <stop
         id="stop3372"
         offset="0"
         style="stop-color:#ffffff;stop-opacity:1;" />
      <stop
         style="stop-color:#ffffff;stop-opacity:1;"
         offset="0.53340602"
         id="stop3374" />
      <stop
         style="stop-color:#f1f1f1;stop-opacity:1;"
         offset="0.83333331"
         id="stop3376" />
      <stop
         id="stop3378"
         offset="0.89999998"
         style="stop-color:#eaeaea;stop-opacity:1;" />
      <stop
         id="stop3384"
         offset="1"
         style="stop-color:#dfdfdf;stop-opacity:1;" />
    </linearGradient>
    <linearGradient
       inkscape:collect="always"
       xlink:href="#linearGradient3369"
       id="linearGradient841"
       x1="68.293251"
       y1="120.56854"
       x2="67.131371"
       y2="6.7243509"
       gradientUnits="userSpaceOnUse" />
    <linearGradient
       id="linearGradient7422">
      <stop
         style="stop-color:#7c9fcf;stop-opacity:1"
         offset="0"
         id="stop7424" />
      <stop
         id="stop5348"
         offset="0.5"
         style="stop-color:#7c9ece;stop-opacity:1" />
      <stop
         id="stop7426"
         offset="1"
         style="stop-color:#7b9dcf;stop-opacity:1" />
    </linearGradient>
    <linearGradient
       inkscape:collect="always"
       xlink:href="#linearGradient7422"
       id="linearGradient1443"
       gradientUnits="userSpaceOnUse"
       x1="68.293251"
       y1="120.56854"
       x2="67.131371"
       y2="6.7243509" />
    <linearGradient
       inkscape:collect="always"
       xlink:href="#linearGradient7422"
       id="linearGradient1450"
       gradientUnits="userSpaceOnUse"
       x1="57.964031"
       y1="6.4355583"
       x2="71.26075"
       y2="123.19748" />
  </defs>
  <sodipodi:namedview
     pagecolor="#ffffff"
     bordercolor="#666666"
     borderopacity="1"
     objecttolerance="10"
     gridtolerance="10"
     guidetolerance="10"
     inkscape:pageopacity="0"
     inkscape:pageshadow="2"
     inkscape:window-width="1364"
     inkscape:window-height="704"
     id="namedview4"
     showgrid="true"
     inkscape:snap-page="true"
     inkscape:snap-global="false"
     inkscape:zoom="1"
     inkscape:cx="96.157593"
     inkscape:cy="54.667835"
     inkscape:window-x="0"
     inkscape:window-y="0"
     inkscape:window-maximized="0"
     inkscape:current-layer="svg2">
    <inkscape:grid
       type="xygrid"
       id="grid837"
       spacingx="4"
       spacingy="4"
       empspacing="1" />
  </sodipodi:namedview>
  <path
     sodipodi:type="inkscape:offset"
     inkscape:radius="3.9774923"
     inkscape:original="M 87.1875 8.015625 L 40.810547 8.0175781 L 8.015625 40.8125 L 8.0175781 87.189453 L 40.8125 119.98438 L 87.189453 119.98242 L 119.98438 87.1875 L 119.98242 40.810547 L 87.1875 8.015625 z "
     style="opacity:1;fill:url(#linearGradient1450);fill-opacity:1;stroke:none;stroke-width:4;stroke-linecap:square;stroke-linejoin:bevel;stroke-miterlimit:4;stroke-dasharray:none;stroke-dashoffset:0;stroke-opacity:0.72941176"
     id="path1448"
     d="m 87.1875,4.0390625 -46.376953,0.00195 a 3.9778901,3.9778901 0 0 0 -2.8125,1.1640625 L 5.203125,38 a 3.9778901,3.9778901 0 0 0 -1.1640625,2.8125 l 0.00195,46.376953 a 3.9778901,3.9778901 0 0 0 1.1640625,2.8125 L 38,122.79688 a 3.9778901,3.9778901 0 0 0 2.8125,1.16406 l 46.376953,-0.002 a 3.9778901,3.9778901 0 0 0 2.8125,-1.16406 L 122.79688,90 a 3.9778901,3.9778901 0 0 0 1.16406,-2.8125 l -0.002,-46.376953 a 3.9778901,3.9778901 0 0 0 -1.16406,-2.8125 L 90,5.203125 A 3.9778901,3.9778901 0 0 0 87.1875,4.0390625 Z" />
  <path
     d="M 119.98369,87.187859 87.190157,119.98274 40.812141,119.98369 8.0172579,87.190157 8.0163062,40.812141 40.809843,8.0172579 87.187859,8.0163062 119.98274,40.809843 Z"
     inkscape:randomized="0"
     inkscape:rounded="0"
     inkscape:flatsided="true"
     sodipodi:arg2="0.78537764"
     sodipodi:arg1="0.39267856"
     sodipodi:r2="56.262947"
     sodipodi:r1="60.595797"
     sodipodi:cy="64"
     sodipodi:cx="64"
     sodipodi:sides="8"
     id="path905"
     style="opacity:1;fill:url(#linearGradient921);fill-opacity:1;stroke:none;stroke-width:4;stroke-linecap:square;stroke-linejoin:bevel;stroke-miterlimit:4;stroke-dasharray:none;stroke-dashoffset:0;stroke-opacity:0.72941176"
     sodipodi:type="star" />
  <path
     style="opacity:1;fill:url(#linearGradient1443);fill-opacity:1;stroke:none;stroke-width:4;stroke-linecap:square;stroke-linejoin:bevel;stroke-miterlimit:4;stroke-dasharray:none;stroke-dashoffset:0;stroke-opacity:0.72941176"
     d="m 49.097656,23.943359 a 4.0461356,4.0461356 0 0 0 -2.861328,1.183594 L 25.138672,46.212891 a 4.0461356,4.0461356 0 0 0 -1.185547,2.859375 l -0.0098,29.830078 a 4.0461356,4.0461356 0 0 0 1.183594,2.861328 l 21.085938,21.097658 a 4.0461356,4.0461356 0 0 0 2.859375,1.18555 l 29.830078,0.01 a 4.0461356,4.0461356 0 0 0 2.861328,-1.18359 L 102.86133,81.787109 a 4.0461356,4.0461356 0 0 0 1.18555,-2.859375 l 0.01,-29.830078 a 4.0461356,4.0461356 0 0 0 -1.18359,-2.861328 L 81.787109,25.138672 a 4.0461356,4.0461356 0 0 0 -2.859375,-1.185547 z"
     id="path1441" />
  <path
     sodipodi:type="star"
     style="opacity:1;fill:url(#linearGradient841);fill-opacity:1;stroke:none;stroke-width:4;stroke-linecap:square;stroke-linejoin:bevel;stroke-miterlimit:4;stroke-dasharray:none;stroke-dashoffset:0;stroke-opacity:0.72941176"
     id="path903"
     sodipodi:sides="8"
     sodipodi:cx="64"
     sodipodi:cy="64"
     sodipodi:r1="38.974082"
     sodipodi:r2="36.354519"
     sodipodi:arg1="0.39299928"
     sodipodi:arg2="0.78569836"
     inkscape:flatsided="true"
     inkscape:rounded="0"
     inkscape:randomized="0"
     d="m 100.00288,78.925545 -21.098954,21.086285 -29.829471,-0.009 -21.086288,-21.098954 0.009,-29.829471 21.098953,-21.086288 29.829471,0.009 21.086285,21.098953 z" />
  <path
     style="fill:none;fill-rule:evenodd;stroke:#507dbe;stroke-width:4;stroke-linecap:butt;stroke-linejoin:miter;stroke-opacity:0.72941178;stroke-miterlimit:4;stroke-dasharray:none"
     d="M 48.894438,27.664998 40.622344,7.7672592"
     id="path923"
     inkscape:connector-curvature="0" />
  <path
     style="fill:none;fill-rule:evenodd;stroke:#507dbe;stroke-width:4;stroke-linecap:butt;stroke-linejoin:miter;stroke-opacity:0.72941178;stroke-miterlimit:4;stroke-dasharray:none"
     d="M 79.011481,27.626028 87.232053,7.7069484"
     id="path925"
     inkscape:connector-curvature="0" />
  <path
     style="fill:none;fill-rule:evenodd;stroke:#507dbe;stroke-width:4;stroke-linecap:butt;stroke-linejoin:miter;stroke-opacity:0.72941178;stroke-miterlimit:4;stroke-dasharray:none"
     d="m 100.335,48.894438 19.89774,-8.272094"
     id="path927"
     inkscape:connector-curvature="0" />
  <path
     style="fill:none;fill-rule:evenodd;stroke:#507dbe;stroke-width:4;stroke-linecap:butt;stroke-linejoin:miter;stroke-opacity:0.72941178;stroke-miterlimit:4;stroke-dasharray:none"
     d="M 27.626028,48.988519 7.7069484,40.767947"
     id="path929"
     inkscape:connector-curvature="0" />
  <path
     style="fill:none;fill-rule:evenodd;stroke:#507dbe;stroke-width:4;stroke-linecap:butt;stroke-linejoin:miter;stroke-opacity:0.72941178;stroke-miterlimit:4;stroke-dasharray:none"
     d="M 27.664998,79.105562 7.7672592,87.377656"
     id="path931"
     inkscape:connector-curvature="0" />
  <path
     style="fill:none;fill-rule:evenodd;stroke:#507dbe;stroke-width:4;stroke-linecap:butt;stroke-linejoin:miter;stroke-opacity:0.72941178;stroke-miterlimit:4;stroke-dasharray:none"
     d="m 40.767947,120.29305 8.220572,-19.91908"
     id="path933"
     inkscape:connector-curvature="0" />
  <path
     style="fill:none;fill-rule:evenodd;stroke:#507dbe;stroke-width:4;stroke-linecap:butt;stroke-linejoin:miter;stroke-opacity:0.72941178;stroke-miterlimit:4;stroke-dasharray:none"
     d="M 87.377656,120.23274 79.105562,100.335"
     id="path935"
     inkscape:connector-curvature="0" />
  <path
     style="fill:none;fill-rule:evenodd;stroke:#507dbe;stroke-width:4;stroke-linecap:butt;stroke-linejoin:miter;stroke-opacity:0.72941178;stroke-miterlimit:4;stroke-dasharray:none"
     d="M 120.29305,87.232053 100.37397,79.011481"
     id="path937"
     inkscape:connector-curvature="0" />
</svg>
